X:48
T:March in the Occasional Oratorio.2voices. BC.48a
M:C|
L:1/4
Q:1/4=100
C:G.F.Handel,1746
S:Benjamin Cooke MS.circa 1770, F.Kidson Coll.
R:.March
O:England
A:Uncertain, probably northern
N:G.F.Handel(1685-1759) wrote the Occasional Oratorio in 1746,
N:not long after the Messiah.
Z:vmp.John Bagnall
K:D
[V:1]A|d/e/f/g/f e|d2 A2|f/g/a/b/ a g|~f2 e2|!
[V:2]D|F/A/d/f/ d A|F2 D2|d/e/f/g/ f e|d2 A2|!
%
[V:1]g/f/g/a/ g f|e2 d2|g a/g/ f/a/g/f/|~ e3 a|!
[V:2]e/d/e/f/ e d|G2 F2|e f/e/ d D|A3 z|!
%
[V:1]e e/e/ e a|A A/A/ ~A f/e/|d c/B/ ~B>A|A3||!
[V:2]z A/A/ A2|z c/c/ c2|G A E E|A3||!
%
[V:1]A|e e/d/ e f|g2 ~ e2|f g/f/ e d|a2 ~f2|!
[V:2]z|z c/B/ c d|e2 ~ c2|d e/d/ c B|A2 d2|!
%
[V:1]A A/A/ ~A d|A A/A/ ~A f|d d/d/ ~ d a|f f/f/ f d’|!
[V:2]A A/A/ A D|A A/A/ ~ A d|F F/F/ F f|d d/d/ ~d f|!
%
[V:1]b a/g/ a g/f/|g2 b2|a g/f/ g f/e/|f2 a2|!
[V:2]g f/e/ f e/d/|e2 g2|f e/d/ e d/c/|~d2 f2|!
%
[V:1]g f/e/ f e/d/|e A e f|g f/e/ ~ e2|d d/d/ d a/f/|!
[V:2]e d/c/ d D|A2 c d|e d A A|F F/F/ F2|!
%
[V:1]d d/d/ d f/d/|e e/e/ e f/g/|f/e/d/e/ ~e>d|d3|]
[V:2]F F/F/ F2|A A/A/ c e|d D A A/G/|F3|]

